assets/svg/1F40D.svg

<svg xmlns="http://www.w3.org/2000/svg" viewBox="0 0 64 64" enable-background="new 0 0 64 64"><g fill="#199050"><path d="m43.573 39.05c0 4.314-3.533 7.812-7.891 7.812l0 0c-4.356 0-7.89-3.498-7.89-7.812v-28.13c0-4.314 3.533-7.813 7.89-7.813l0 0c4.357 0 7.891 3.499 7.891 7.813v28.13"/><ellipse cx="33.835" cy="16.352" rx="17.844" ry="11.774"/></g><g fill="#d6df27"><path d="m49.46 9.59c0 5.063-3.413 9.158-7.62 9.158-4.215 0-7.632-4.095-7.632-9.158 0-5.05 3.417-9.15 7.632-9.15 4.207-.0001 7.62 4.096 7.62 9.15"/><path d="m34.33 9.254c0 5.062-3.413 9.158-7.62 9.158-4.215 0-7.632-4.096-7.632-9.158 0-5.05 3.417-9.15 7.632-9.15 4.207 0 7.62 4.096 7.62 9.15"/></g><g fill="#25333a"><path d="m28.372 9.608c0 3.357-.746 6.074-1.667 6.074-.922 0-1.671-2.717-1.671-6.074 0-3.352.749-6.078 1.671-6.078.921 0 1.667 2.726 1.667 6.078"/><path d="m43.502 9.608c0 3.357-.745 6.074-1.667 6.074s-1.671-2.717-1.671-6.074c0-3.352.749-6.078 1.671-6.078s1.667 2.726 1.667 6.078"/></g><path fill="#cb2e42" d="m52.12 26.04l5.058-5.734c.118-.141-.156-.58-.619-.98-.467-.403-.942-.615-1.065-.476l-5.486 6.225-12.12.817c-.252.018-.42.523-.378 1.132.039.611.276 1.092.528 1.075l12.12-.818 6.286 5.435c.144.117.582-.152.99-.613.402-.463.617-.932.478-1.055l-5.793-5.01"/><path fill="#199050" d="m63.04 56.86c0 7.06-14.55 6.924-30.29 6.924-15.751 0-32.745.132-32.745-6.924 0-7.06 12.771-12.783 28.508-12.783 15.735 0 34.528 5.723 34.528 12.783"/><path fill="#15a75c" d="m55.58 50.01c0 5.077-12.756 4.982-26.04 4.982-13.295 0-25.1.095-25.1-4.982 0-5.083 10.779-9.196 24.06-9.196 13.282-.0001 27.08 4.113 27.08 9.196"/><g fill="#04a69c"><path d="m51.812 44.13c0 3.549-11.228 2.312-22.431 2.312-11.211 0-21.16.064-21.16-3.482 0-3.555 15.11-8.771 26.313-8.771 11.199-.0001 17.282 6.386 17.282 9.941"/><path d="m27.72 29.1c-.52-2.405 2.725-3.04 7.138-3.973 4.41-.933 8.322-1.81 8.841.595.52 2.405-2.644 5.108-7.05 6.04-4.41.932-8.407-.258-8.925-2.662"/></g></svg>

<?xml version="1.0" encoding="UTF-8" standalone="no"?>
<!-- Generator: Adobe Illustrator 16.0.0, SVG Export Plug-In . SVG Version: 6.00 Build 0)  -->

<svg
   xmlns:dc="http://purl.org/dc/elements/1.1/"
   xmlns:cc="http://creativecommons.org/ns#"
   xmlns:rdf="http://www.w3.org/1999/02/22-rdf-syntax-ns#"
   xmlns:svg="http://www.w3.org/2000/svg"
   xmlns="http://www.w3.org/2000/svg"
   xmlns:sodipodi="http://sodipodi.sourceforge.net/DTD/sodipodi-0.dtd"
   xmlns:inkscape="http://www.inkscape.org/namespaces/inkscape"
   version="1.1"
   id="Layer_1"
   x="0px"
   y="0px"
   width="64px"
   height="64px"
   viewBox="0 0 64 64"
   enable-background="new 0 0 64 64"
   xml:space="preserve"
   inkscape:version="0.48.5 r10040"
   sodipodi:docname="1F40D.svg"
   inkscape:export-filename="D:\TESTINGEMOJI\SVGTEST\1F40D.png"
   inkscape:export-xdpi="90"
   inkscape:export-ydpi="90"><metadata
   id="metadata3103"><rdf:RDF><cc:Work
       rdf:about=""><dc:format>image/svg+xml</dc:format><dc:type
         rdf:resource="http://purl.org/dc/dcmitype/StillImage" /><dc:title></dc:title></cc:Work></rdf:RDF></metadata><defs
   id="defs3101" /><sodipodi:namedview
   pagecolor="#ffffff"
   bordercolor="#666666"
   borderopacity="1"
   objecttolerance="10"
   gridtolerance="10"
   guidetolerance="10"
   inkscape:pageopacity="0"
   inkscape:pageshadow="2"
   inkscape:window-width="640"
   inkscape:window-height="480"
   id="namedview3099"
   showgrid="false"
   inkscape:zoom="3.6875"
   inkscape:cx="32"
   inkscape:cy="32"
   inkscape:window-x="1085"
   inkscape:window-y="324"
   inkscape:window-maximized="0"
   inkscape:current-layer="Layer_1" />
<g
   id="g3075">
	<path
   fill="#199050"
   d="M43.573,39.055c0,4.314-3.533,7.812-7.891,7.812l0,0c-4.356,0-7.89-3.498-7.89-7.812V10.929   c0-4.314,3.533-7.813,7.89-7.813l0,0c4.357,0,7.891,3.499,7.891,7.813V39.055z"
   id="path3077" />
	<ellipse
   fill="#199050"
   cx="33.835"
   cy="16.352"
   rx="17.844"
   ry="11.774"
   id="ellipse3079" />
	<path
   fill="#D6DF27"
   d="M49.459,9.59c0,5.063-3.413,9.158-7.62,9.158c-4.215,0-7.632-4.095-7.632-9.158   c0-5.054,3.417-9.15,7.632-9.15C46.046,0.439,49.459,4.536,49.459,9.59z"
   id="path3081" />
	<path
   fill="#D6DF27"
   d="M34.329,9.254c0,5.062-3.413,9.158-7.62,9.158c-4.215,0-7.632-4.096-7.632-9.158   c0-5.055,3.417-9.15,7.632-9.15C30.916,0.104,34.329,4.2,34.329,9.254z"
   id="path3083" />
	<path
   fill="#25333A"
   d="M28.372,9.608c0,3.357-0.746,6.074-1.667,6.074c-0.922,0-1.671-2.717-1.671-6.074   c0-3.352,0.749-6.078,1.671-6.078C27.626,3.53,28.372,6.256,28.372,9.608z"
   id="path3085" />
	<path
   fill="#25333A"
   d="M43.502,9.608c0,3.357-0.745,6.074-1.667,6.074s-1.671-2.717-1.671-6.074c0-3.352,0.749-6.078,1.671-6.078   S43.502,6.256,43.502,9.608z"
   id="path3087" />
	<path
   fill="#CB2E42"
   d="M52.116,26.042l5.058-5.734c0.118-0.141-0.156-0.58-0.619-0.98c-0.467-0.403-0.942-0.615-1.065-0.476   l-5.486,6.225L37.88,25.894c-0.252,0.018-0.42,0.523-0.378,1.132c0.039,0.611,0.276,1.092,0.528,1.075l12.125-0.818l6.286,5.435   c0.144,0.117,0.582-0.152,0.99-0.613c0.402-0.463,0.617-0.932,0.478-1.055L52.116,26.042z"
   id="path3089" />
	<path
   fill="#199050"
   d="M63.036,56.86c0,7.056-14.55,6.924-30.291,6.924C16.994,63.784,0,63.916,0,56.86   C0,49.8,12.771,44.077,28.508,44.077C44.243,44.077,63.036,49.8,63.036,56.86z"
   id="path3091" />
	<path
   fill="#15A75C"
   d="M55.584,50.012c0,5.077-12.756,4.982-26.042,4.982c-13.295,0-25.097,0.095-25.097-4.982   c0-5.083,10.779-9.196,24.063-9.196C41.79,40.815,55.584,44.929,55.584,50.012z"
   id="path3093" />
	<path
   fill="#04A69C"
   d="M51.812,44.133c0,3.549-11.228,2.312-22.431,2.312c-11.211,0-21.164,0.064-21.164-3.482   c0-3.555,15.112-8.771,26.313-8.771C45.729,34.191,51.812,40.578,51.812,44.133z"
   id="path3095" />
	<path
   fill="#04A69C"
   d="M27.72,29.101c-0.52-2.405,2.725-3.04,7.138-3.973c4.41-0.933,8.322-1.81,8.841,0.595   c0.52,2.405-2.644,5.108-7.054,6.04C32.235,32.695,28.238,31.505,27.72,29.101z"
   id="path3097" />
</g>
</svg>
